X:178
T:Nos Galan fel y Cenir yn Bencader
M:2/4
L:1/8
Q:180
C:Trad.
S:Ifor Ceri ms
R:Processional
K:G
d>c B>A | GB GF | EA FE | DE/F/ G2 |
d>c B/c/B/A/ | GB GF | EA F/G/F/E/ | DE/F/ G2 ||
A2 A/G/E/G/ | A/G/E/G/ A2 | A>B cB | A/G/E/G/ A2 |
Bd AB | G2 GA/B/ | d>c B/c/B/A/ | GD G2 |
A2 A/G/E/G/ | A3- A | EG/A/ cB | A/G/E/G/ A2 |
Bd AB | G2 GA/B/ | d>c B/c/B/A/ | GD G2 ||
